public/tools-icons/english.svg

<svg xmlns="http://www.w3.org/2000/svg" width="24" height="18" fill="none"><g clip-path="url(#clip0_140_81)"><path fill="#012169" d="M0 0H24V18H0V0Z"/><path fill="#fff" d="M2.8125 0L11.9625 6.7875L21.075 0H24V2.325L15 9.0375L24 15.7125V18H21L12 11.2875L3.0375 18H0V15.75L8.9625 9.075L0 2.4V0H2.8125Z"/><path fill="#c8102e" d="M15.9 10.5375L24 16.5V18L13.8375 10.5375H15.9ZM9 11.2875L9.225 12.6L2.025 18H0L9 11.2875ZM24 0V0.1125L14.6625 7.1625L14.7375 5.5125L22.125 0H24ZM0 0L8.9625 6.6H6.7125L0 1.575V0Z"/><path fill="#fff" d="M9.0375 0V18H15.0375V0H9.0375ZM0 6V12H24V6H0Z"/><path fill="#c8102e" d="M0 7.2375V10.8375H24V7.2375H0ZM10.2375 0V18H13.8375V0H10.2375Z"/></g><defs><clipPath id="clip0_140_81"><path fill="#fff" d="M0 9C0 4.02944 4.02944 0 9 0H15C19.9706 0 24 4.02944 24 9C24 13.9706 19.9706 18 15 18H9C4.02944 18 0 13.9706 0 9Z"/></clipPath></defs></svg>

<svg xmlns="http://www.w3.org/2000/svg" width="24" height="18" fill="none" viewBox="0 0 24 18"><g clip-path="url(#a)"><path fill="#012169" d="M0 0h24v18H0z"/><path fill="#fff" d="m2.813 0 9.15 6.788L21.075 0H24v2.325l-9 6.712 9 6.676V18h-3l-9-6.712L3.038 18H0v-2.25l8.963-6.675L0 2.4V0z"/><path fill="#c8102e" d="M15.9 10.538 24 16.5V18l-10.162-7.462zm-6.9.75.225 1.312-7.2 5.4H0zM24 0v.113l-9.337 7.05.075-1.65L22.125 0zM0 0l8.963 6.6h-2.25L0 1.575z"/><path fill="#fff" d="M9.038 0v18h6V0zM0 6v6h24V6z"/><path fill="#c8102e" d="M0 7.238v3.6h24v-3.6zM10.238 0v18h3.6V0z"/></g><defs><clipPath id="a"><path fill="#fff" d="M0 9a9 9 0 0 1 9-9h6a9 9 0 1 1 0 18H9a9 9 0 0 1-9-9"/></clipPath></defs></svg>
